src/assets/img/tx-action/icon-received.svg

<?xml version="1.0" encoding="utf-8"?>
<!-- Generator: Adobe Illustrator 21.0.0, SVG Export Plug-In . SVG Version: 6.00 Build 0)  -->
<svg version="1.1" xmlns="http://www.w3.org/2000/svg" xmlns:xlink="http://www.w3.org/1999/xlink" x="0px" y="0px"
	 viewBox="0 0 35 35" style="enable-background:new 0 0 35 35;" xml:space="preserve">
<style type="text/css">
	.st0{fill:#0EC286;}
</style>
<g>
	<path class="st0" d="M17.5,34.5c-9.4,0-17-7.6-17-17s7.6-17,17-17s17,7.6,17,17S26.9,34.5,17.5,34.5z M17.5,1.5
		c-8.8,0-16,7.2-16,16s7.2,16,16,16s16-7.2,16-16S26.3,1.5,17.5,1.5z"/>
</g>
<path class="st0" d="M23.8,18.2c-0.3-0.3-0.8-0.3-1.1,0l-4.7,4.6V10.5c0-0.4-0.3-0.8-0.8-0.8s-0.8,0.3-0.8,0.8v12.1l-4.4-4.3
	c-0.3-0.3-0.8-0.3-1.1,0c-0.3,0.3-0.3,0.8,0,1.1l5.8,5.6c0.1,0.1,0.3,0.2,0.5,0.2c0.2,0,0.4-0.1,0.5-0.2l5.9-5.8
	C24.1,18.9,24.1,18.5,23.8,18.2z"/>
</svg>

<?xml version="1.0" encoding="UTF-8"?>
<svg width="35px" height="35px" viewBox="0 0 35 35" version="1.1" xmlns="http://www.w3.org/2000/svg" xmlns:xlink="http://www.w3.org/1999/xlink">
    <!-- Generator: Sketch 54.1 (76490) - https://sketchapp.com -->
    <title>icon-received</title>
    <desc>Created with Sketch.</desc>
    <g id="copay-assets" stroke="none" stroke-width="1" fill="none" fill-rule="evenodd">
        <g id="icon-received" fill="#FFB900" fill-rule="nonzero">
            <path d="M17.5,34.5 C8.1,34.5 0.5,26.9 0.5,17.5 C0.5,8.1 8.1,0.5 17.5,0.5 C26.9,0.5 34.5,8.1 34.5,17.5 C34.5,26.9 26.9,34.5 17.5,34.5 Z M17.5,1.5 C8.7,1.5 1.5,8.7 1.5,17.5 C1.5,26.3 8.7,33.5 17.5,33.5 C26.3,33.5 33.5,26.3 33.5,17.5 C33.5,8.7 26.3,1.5 17.5,1.5 Z" id="Shape"></path>
            <path d="M23.8,18.2 C23.5,17.9 23,17.9 22.7,18.2 L18,22.8 L18,10.5 C18,10.1 17.7,9.7 17.2,9.7 C16.7,9.7 16.4,10 16.4,10.5 L16.4,22.6 L12,18.3 C11.7,18 11.2,18 10.9,18.3 C10.6,18.6 10.6,19.1 10.9,19.4 L16.7,25 C16.8,25.1 17,25.2 17.2,25.2 C17.4,25.2 17.6,25.1 17.7,25 L23.6,19.2 C24.1,18.9 24.1,18.5 23.8,18.2 Z" id="Path"></path>
        </g>
    </g>
</svg>
